src/status/22/smartphone-disconnected.svg

<svg viewBox="0 0 22 22" xmlns="http://www.w3.org/2000/svg">
 <path style="fill:#bf616a" d="M7.75 2C6.793 2 6 2.773 6 3.73L6 18.25C6 19.203 6.793 20 7.75 20l6.5 0C15.207 20 16 19.203 16 18.25L16 3.73C16 2.773 15.207 2 14.25 2ZM7 4l8 0 0 13-8 0zm4 14c .414214 0 1 .110786 1 .525C12 18.939214 11.414214 19 11 19 10.585786 19 10 18.939214 10 18.525 10 18.110786 10.585786 18 11 18Z"/>
</svg>

<svg viewBox="0 0 22 22" xmlns="http://www.w3.org/2000/svg">
 <path d="m7.75 2c-0.957 0-1.75 0.773-1.75 1.73v14.52c0 0.953 0.793 1.75 1.75 1.75h6.5c0.957 0 1.75-0.797 1.75-1.75v-14.52c0-0.957-0.793-1.73-1.75-1.73zm-0.75 2h8v13h-8zm4 14c0.41421 0 1 0.11079 1 0.525s-0.58579 0.475-1 0.475-1-0.060786-1-0.475 0.58579-0.525 1-0.525z" fill="#bf616a"/>
</svg>
